X:7665
T:Trip To Camberwell,A. HSJJ.119
O:england
M:2/4
L:1/8
Q:300
S:HSJ Jackson,Wyresdale,Lancs.1823
R:Reel
A:Lancashire
H:1823
K:F
Ac~cf|Bd~df|cAGF|EGGB|Ac~cf|Bdfd|cAGc|AFF:|
|:a|gec'e|fdgf|"possible bar missing"ecc2|dBBd|cAfA|BGcB|AFF:|]


